src/assets/images/tg_icon.svg

<svg width="34" height="34" viewBox="0 0 34 34" fill="none" xmlns="http://www.w3.org/2000/svg">
<path d="M16.9999 0.333496C7.79992 0.333496 0.333252 7.80016 0.333252 17.0002C0.333252 26.2002 7.79992 33.6668 16.9999 33.6668C26.1999 33.6668 33.6666 26.2002 33.6666 17.0002C33.6666 7.80016 26.1999 0.333496 16.9999 0.333496ZM24.7332 11.6668C24.4832 14.3002 23.3999 20.7002 22.8499 23.6502C22.6166 24.9002 22.1499 25.3168 21.7166 25.3668C20.7499 25.4502 20.0166 24.7335 19.0833 24.1168C17.6166 23.1502 16.7833 22.5502 15.3666 21.6168C13.7166 20.5335 14.7833 19.9335 15.7333 18.9668C15.9833 18.7168 20.2499 14.8335 20.3333 14.4835C20.3448 14.4305 20.3433 14.3754 20.3288 14.3232C20.3142 14.2709 20.2872 14.2229 20.2499 14.1835C20.1499 14.1002 20.0166 14.1335 19.8999 14.1502C19.7499 14.1835 17.4166 15.7335 12.8666 18.8002C12.1999 19.2502 11.5999 19.4835 11.0666 19.4668C10.4666 19.4502 9.33325 19.1335 8.48325 18.8502C7.43325 18.5168 6.61659 18.3335 6.68325 17.7502C6.71659 17.4502 7.13325 17.1502 7.91659 16.8335C12.7833 14.7168 16.0166 13.3168 17.6333 12.6502C22.2666 10.7168 23.2166 10.3835 23.8499 10.3835C23.9833 10.3835 24.2999 10.4168 24.4999 10.5835C24.6666 10.7168 24.7166 10.9002 24.7332 11.0335C24.7166 11.1335 24.7499 11.4335 24.7332 11.6668Z" fill="black"/>
</svg>

<svg xmlns="http://www.w3.org/2000/svg" width="34" height="34" fill="none"><path fill="#000" d="M17 .333C7.8.333.333 7.8.333 17 .333 26.2 7.8 33.667 17 33.667c9.2 0 16.667-7.467 16.667-16.667C33.667 7.8 26.2.333 17 .333Zm7.733 11.334C24.483 14.3 23.4 20.7 22.85 23.65c-.233 1.25-.7 1.667-1.133 1.717-.967.083-1.7-.634-2.634-1.25-1.466-.967-2.3-1.567-3.716-2.5-1.65-1.084-.584-1.684.366-2.65.25-.25 4.517-4.133 4.6-4.483a.334.334 0 0 0-.083-.3c-.1-.084-.233-.05-.35-.034-.15.034-2.483 1.583-7.033 4.65-.667.45-1.267.683-1.8.667-.6-.017-1.734-.333-2.584-.617-1.05-.333-1.866-.517-1.8-1.1.034-.3.45-.6 1.234-.916 4.866-2.117 8.1-3.517 9.716-4.184 4.634-1.933 5.584-2.267 6.217-2.267.133 0 .45.034.65.2a.661.661 0 0 1 .233.45c-.016.1.017.4 0 .634Z"/></svg>
